media/img/firefox/welcome/page19/fast.svg

<svg width="200" height="125" viewBox="0 0 200 125" xmlns="http://www.w3.org/2000/svg" xmlns:xlink="http://www.w3.org/1999/xlink">
    <path id="Path" fill="#c4c6fc" stroke="none" d="M 189.617996 97.001801 L 148.809006 97.001801 C 149.154007 95.002296 150.169998 93.191803 151.679001 91.887398 C 153.186996 90.583099 155.093002 89.868103 157.061005 89.867699 C 157.169998 89.867699 157.278 89.867699 157.382004 89.867699 C 158.544998 87.735298 160.291 86.003502 162.401993 84.888 C 164.514008 83.772598 166.895996 83.322899 169.253006 83.5951 C 171.610001 83.867294 173.837006 84.849297 175.656998 86.418602 C 177.477005 87.987999 178.809006 90.075302 179.487 92.420303 C 180.348999 91.599602 181.425003 91.056099 182.582001 90.856102 C 183.740005 90.656097 184.927994 90.808296 186.003006 91.294098 C 187.078003 91.7799 187.992004 92.5783 188.634003 93.591599 C 189.276001 94.604797 189.617996 95.7892 189.617996 96.999802 L 189.617996 97.001801 Z"/>
    <path id="path1" fill="none" stroke="#000000" stroke-linecap="round" stroke-linejoin="round" d="M 76.164803 66.6427 L 43.773602 66.6427"/>
    <path id="path2" fill="none" stroke="#000000" stroke-linecap="round" stroke-linejoin="round" d="M 70.207199 76.416397 L 37.815903 76.416397"/>
    <path id="path3" fill="none" stroke="#000000" stroke-linecap="round" stroke-linejoin="round" d="M 70.207199 57.254303 L 37.815903 57.254303"/>
    <path id="path4" fill="none" stroke="#000000" stroke-linecap="round" stroke-linejoin="round" d="M 178.337997 100.275597 L 137.695999 100.275597 C 138.037994 98.322502 139.050003 96.553802 140.552002 95.279503 C 142.054001 94.005203 143.951996 93.306503 145.912994 93.306099 L 146.231003 93.306099 C 147.389999 91.225197 149.128006 89.535301 151.229996 88.4468 C 153.330994 87.358398 155.703003 86.919403 158.048996 87.184601 C 160.395004 87.449799 162.613007 88.407402 164.425003 89.938301 C 166.237 91.469101 167.563995 93.505501 168.240997 95.7939 C 169.100998 94.991997 170.171997 94.4608 171.324997 94.265503 C 172.477997 94.070099 173.662003 94.219002 174.733002 94.693802 C 175.804001 95.168701 176.714005 95.949097 177.354004 96.9394 C 177.992996 97.929703 178.332993 99.086998 178.332001 100.269798 L 178.337997 100.275597 Z"/>
    <path id="path5" fill="none" stroke="#000000" stroke-width="0.75" stroke-linecap="round" stroke-linejoin="round" d="M 152.738007 53.591499 C 153.475006 53.591499 154.072998 52.987 154.072998 52.241302 C 154.072998 51.495598 153.475006 50.891098 152.738007 50.891098 C 152.001007 50.891098 151.404007 51.495598 151.404007 52.241302 C 151.404007 52.987 152.001007 53.591499 152.738007 53.591499 Z"/>
    <path id="path6" fill="#000000" stroke="#000000" stroke-width="0.177047" stroke-linecap="round" stroke-linejoin="round" d="M 174.223999 71.748901 C 174.184006 71.748901 174.145004 71.740997 174.108994 71.7257 C 174.072998 71.710297 174.039993 71.687805 174.013 71.659401 C 173.985001 71.630997 173.964005 71.597397 173.949005 71.560501 C 173.934998 71.523605 173.927994 71.4841 173.927994 71.444397 L 173.927994 68.715195 C 173.927994 68.636002 173.959 68.559998 174.014999 68.503899 C 174.070007 68.447899 174.145004 68.416397 174.223999 68.416397 C 174.263 68.415695 174.302002 68.422798 174.337997 68.4375 C 174.375 68.452202 174.408005 68.474098 174.436005 68.5019 C 174.464005 68.529701 174.485992 68.562897 174.501999 68.599503 C 174.516998 68.6362 174.524994 68.675499 174.524994 68.715195 L 174.524994 71.455902 C 174.522003 71.534698 174.488998 71.6092 174.432007 71.663803 C 174.376007 71.718498 174.300995 71.749001 174.223999 71.748901 L 174.223999 71.748901 Z"/>
    <path id="path7" fill="#000000" stroke="#000000" stroke-width="0.177047" stroke-linecap="round" stroke-linejoin="round" d="M 175.878998 70.079399 C 175.878998 70.158699 175.848007 70.234695 175.792007 70.290695 C 175.737 70.346695 175.662003 70.378204 175.584 70.378204 L 172.875 70.378204 C 172.835999 70.378998 172.796997 70.371796 172.759995 70.357101 C 172.723999 70.342499 172.690002 70.320602 172.662003 70.292801 C 172.634003 70.2649 172.612 70.231705 172.597 70.195099 C 172.582001 70.158501 172.574005 70.119202 172.574005 70.079399 C 172.574005 69.998703 172.606003 69.921204 172.662003 69.864105 C 172.718994 69.806999 172.794998 69.774902 172.875 69.774902 L 175.584 69.774902 C 175.623001 69.774902 175.662003 69.782799 175.697998 69.798203 C 175.733994 69.813599 175.766998 69.836105 175.794006 69.864395 C 175.822006 69.892799 175.843994 69.926399 175.858002 69.963303 C 175.873001 70.000198 175.880005 70.039703 175.878998 70.079399 Z"/>
    <path id="path8" fill="#ffffff" stroke="#000000" stroke-linecap="round" stroke-linejoin="round" d="M 141.044006 66.659897 C 141.044006 87.672302 124.209999 104.696198 103.456596 104.696198 C 82.7034 104.696198 65.869598 87.672302 65.869598 66.659897 C 65.869598 45.647499 82.7034 28.623596 103.456596 28.623596 C 124.209999 28.623596 141.044006 45.647499 141.044006 66.659897 Z"/>
    <path id="path9" fill="none" stroke="#000000" stroke-linecap="round" stroke-linejoin="round" d="M 132.974991 66.774597 L 132.940994 67.498596 C 132.487 75.322701 129.035004 82.659401 123.319 87.948196 C 117.601997 93.237099 110.071999 96.060898 102.329201 95.819199 C 94.5867 95.5774 87.242798 92.2892 81.859299 86.653801 C 76.4758 81.018295 73.477402 73.480301 73.5019 65.6427"/>
    <path id="path10" fill="none" stroke="#000000" stroke-linecap="round" stroke-linejoin="round" d="M 103.244598 92.096603 L 103.244598 96.744904"/>
    <path id="path11" fill="none" stroke="#000000" stroke-linecap="round" stroke-linejoin="round" d="M 128.378998 67.671906 L 132.972992 67.671906"/>
    <path id="path12" fill="none" stroke="#000000" stroke-linecap="round" stroke-linejoin="round" d="M 121.172997 84.167 L 124.420998 87.459297"/>
    <path id="path13" fill="none" stroke="#000000" stroke-linecap="round" stroke-linejoin="round" d="M 85.765503 84.742104 L 82.517303 88.028603"/>
    <path id="path14" fill="none" stroke="#000000" stroke-width="0.75" stroke-linecap="round" stroke-linejoin="round" d="M 59.965599 23.595978 C 60.702599 23.595978 61.300098 22.991463 61.300098 22.245743 C 61.300098 21.500031 60.702599 20.895508 59.965599 20.895508 C 59.2286 20.895508 58.6311 21.500031 58.6311 22.245743 C 58.6311 22.991463 59.2286 23.595978 59.965599 23.595978 Z"/>
    <path id="path15" fill="none" stroke="#000000" stroke-linecap="round" stroke-linejoin="round" d="M 9.618408 44.418396 L 47.932499 44.418396"/>
    <path id="path16" fill="none" stroke="#000000" stroke-linecap="round" stroke-linejoin="round" d="M 57.080601 40.344604 L 19.601301 40.344604 C 19.9188 38.536499 20.8577 36.900002 22.252201 35.724602 C 23.646801 34.549103 25.407101 33.910301 27.222099 33.920898 L 27.517401 33.920898 C 28.585501 32.003296 30.187599 30.446098 32.124203 29.443253 C 34.060802 28.44043 36.2463 28.036362 38.408302 28.28138 C 40.570202 28.526413 42.613201 29.409698 44.282501 30.821198 C 45.951801 32.232697 47.173698 34.110001 47.796001 36.2192 C 48.588799 35.482201 49.576401 34.994499 50.638401 34.815598 C 51.700401 34.636703 52.790901 34.7743 53.777 35.211601 C 54.763 35.649002 55.602001 36.367096 56.191601 37.278503 C 56.7813 38.190002 57.0961 39.255302 57.097698 40.344604 L 57.080601 40.344604 Z"/>
    <path id="path17" fill="none" stroke="#000000" stroke-linecap="round" stroke-linejoin="round" d="M 27.690599 40.3451 L 66.0047 40.3451"/>
    <path id="path18" fill="#000000" stroke="#000000" stroke-width="0.177047" stroke-linecap="round" stroke-linejoin="round" d="M 57.080799 98.922096 C 57.041199 98.922096 57.002102 98.914299 56.965599 98.899002 C 56.9291 98.883698 56.895901 98.861198 56.867901 98.833 C 56.84 98.804703 56.817799 98.771103 56.8027 98.7342 C 56.787601 98.697197 56.7798 98.6576 56.7798 98.617599 L 56.7798 95.876999 C 56.7798 95.837196 56.787601 95.797897 56.802799 95.761299 C 56.818001 95.724602 56.840199 95.691498 56.868301 95.663597 C 56.896301 95.635803 56.929501 95.613899 56.966 95.599197 C 57.002499 95.584602 57.0415 95.5774 57.080799 95.578201 C 57.119499 95.578201 57.157902 95.585899 57.193802 95.600899 C 57.229599 95.615898 57.262199 95.637901 57.2896 95.665703 C 57.317001 95.693398 57.338699 95.726402 57.3536 95.762604 C 57.368401 95.798897 57.376099 95.8377 57.376099 95.876999 L 57.376099 98.6119 C 57.377602 98.6521 57.371101 98.6922 57.356899 98.729698 C 57.3428 98.767303 57.321301 98.801598 57.293701 98.830597 C 57.266102 98.859596 57.233002 98.882599 57.196499 98.898399 C 57.159901 98.914101 57.120499 98.922203 57.080799 98.922096 L 57.080799 98.922096 Z"/>
    <path id="path19" fill="#000000" stroke="#000000" stroke-width="0.177047" stroke-linecap="round" stroke-linejoin="round" d="M 58.733398 97.250298 C 58.733398 97.290001 58.725601 97.3293 58.7104 97.365898 C 58.695202 97.402603 58.672901 97.435799 58.644901 97.4636 C 58.616901 97.491402 58.583599 97.513298 58.547199 97.528 C 58.5107 97.542603 58.471699 97.549797 58.4324 97.549004 L 55.723701 97.549004 C 55.645401 97.549004 55.570301 97.517601 55.5149 97.461502 C 55.459499 97.405502 55.428398 97.329498 55.428398 97.250298 C 55.427601 97.210503 55.4347 97.171097 55.4492 97.134201 C 55.463699 97.097198 55.485401 97.063599 55.512901 97.035301 C 55.540401 97.006897 55.5732 96.984398 55.609402 96.969002 C 55.645599 96.953598 55.684399 96.945702 55.723701 96.945702 L 58.455101 96.945702 C 58.530899 96.9515 58.601799 96.986198 58.6534 97.042702 C 58.705002 97.099197 58.733601 97.173302 58.733398 97.250298 L 58.733398 97.250298 Z"/>
    <g id="Group">
        <path id="path20" fill="#c3c5ff" stroke="none" d="M 73.501701 65.206802 C 73.500702 60.197601 75.0495 55.313797 77.930901 51.240402 C 80.812302 47.167 84.881699 44.108398 89.568199 42.493797 C 94.254799 40.879196 99.323303 40.789497 104.062798 42.237297 C 108.802299 43.685196 112.974998 46.5979 115.995003 50.566902 L 127.170998 45.487701 C 123.454002 40.383896 118.239998 36.5979 112.271004 34.669701 C 106.302696 32.741402 99.884598 32.769402 93.932602 34.749702 C 87.980598 36.729904 82.798599 40.561203 79.125702 45.697197 C 75.452797 50.833199 73.476601 57.011497 73.478996 63.351002"/>
        <path id="path21" fill="none" stroke="#c2c6ff" stroke-width="0.088523" stroke-linecap="round" stroke-linejoin="round" d="M 73.501701 65.206802 C 73.500702 60.197601 75.0495 55.313797 77.930901 51.240402 C 80.812302 47.167 84.881699 44.108398 89.568199 42.493797 C 94.254799 40.879196 99.323303 40.789497 104.062798 42.237297 C 108.802299 43.685196 112.974998 46.5979 115.995003 50.566902 L 127.170998 45.487701 C 123.454002 40.383896 118.239998 36.5979 112.271004 34.669701 C 106.302696 32.741402 99.884598 32.769402 93.932602 34.749702 C 87.980598 36.729904 82.798599 40.561203 79.125702 45.697197 C 75.452797 50.833199 73.476601 57.011497 73.478996 63.351002"/>
    </g>
    <linearGradient id="linearGradient1" x1="119.678" y1="49.2253" x2="83.5571" y2="49.2253" gradientUnits="userSpaceOnUse">
        <stop offset="1e-05" stop-color="#ad79ff" stop-opacity="1"/>
        <stop offset="1" stop-color="#c0bff9" stop-opacity="1"/>
    </linearGradient>
    <path id="path22" fill="url(#linearGradient1)" stroke="none" d="M 73.501701 65.206902 C 73.500702 60.197701 75.0495 55.313797 77.930901 51.240402 C 80.812302 47.167099 84.881699 44.108498 89.568199 42.493896 C 94.254799 40.879303 99.323303 40.789597 104.062798 42.237396 C 108.802299 43.685196 112.974998 46.5979 115.995003 50.566902 L 127.170998 45.487701 C 123.454002 40.384003 118.239998 36.598 112.271004 34.669701 C 106.302696 32.741501 99.884598 32.769501 93.932602 34.749702 C 87.980598 36.729996 82.798599 40.561302 79.125702 45.697296 C 75.452797 50.833298 73.476601 57.011597 73.478996 63.351101"/>
    <path id="path23" fill="#6f4ae7" stroke="#000000" stroke-linecap="round" stroke-linejoin="round" d="M 126.289001 49.225296 C 118.393997 59.444695 108.970901 71.331001 106.948997 72.960899 C 106.312698 73.513 105.573097 73.930298 104.773804 74.188202 C 103.974403 74.446198 103.1315 74.539505 102.294701 74.462799 C 101.457901 74.386002 100.644096 74.140701 99.901299 73.741402 C 99.158501 73.341995 98.501801 72.7966 97.969704 72.137299 C 97.437698 71.478104 97.041199 70.7183 96.803497 69.902695 C 96.565804 69.087204 96.491798 68.232399 96.5858 67.388702 C 96.679802 66.544998 96.939903 65.729599 97.350899 64.990295 C 97.761803 64.251099 98.3153 63.6031 98.9785 63.0844 L 99.085297 62.9972 C 101.107201 61.367298 114.668999 54.725395 126.278 49.246399 L 126.289001 49.225296 Z"/>
    <path id="path24" fill="none" stroke="#000000" stroke-linecap="round" stroke-linejoin="round" d="M 73.458603 66.753799 L 77.831001 66.753799"/>
</svg>

<svg width="200" height="125" xmlns="http://www.w3.org/2000/svg"><path fill="#c4c6fc" d="M189.618 97.002h-40.809c.345-2 1.361-3.81 2.87-5.115a8.227 8.227 0 0 1 5.382-2.02h.321a12.254 12.254 0 0 1 5.02-4.979 11.764 11.764 0 0 1 6.851-1.293 11.897 11.897 0 0 1 6.404 2.824 12.503 12.503 0 0 1 3.83 6.001 5.963 5.963 0 0 1 3.095-1.564 5.87 5.87 0 0 1 3.421.438 6.09 6.09 0 0 1 2.631 2.298 6.372 6.372 0 0 1 .984 3.408v.002Z"/><path fill="none" stroke="#000" stroke-linecap="round" stroke-linejoin="round" d="M76.165 66.643H43.774M70.207 76.416H37.816M70.207 57.254H37.816M178.338 100.276h-40.642a8.466 8.466 0 0 1 2.856-4.996 8.288 8.288 0 0 1 5.361-1.974h.318a12.092 12.092 0 0 1 4.999-4.86 11.912 11.912 0 0 1 6.819-1.261 11.962 11.962 0 0 1 6.376 2.753 12.19 12.19 0 0 1 3.816 5.856 5.989 5.989 0 0 1 3.084-1.528 5.951 5.951 0 0 1 3.408.428 6.036 6.036 0 0 1 2.621 2.245c.639.99.979 2.148.978 3.33l.006.007Z"/><path fill="none" stroke="#000" stroke-width=".75" stroke-linecap="round" stroke-linejoin="round" d="M152.738 53.591c.737 0 1.335-.604 1.335-1.35 0-.745-.598-1.35-1.335-1.35s-1.334.605-1.334 1.35c0 .746.597 1.35 1.334 1.35Z"/><path stroke="#000" stroke-width=".177" stroke-linecap="round" stroke-linejoin="round" d="M174.224 71.749a.294.294 0 0 1-.275-.188.328.328 0 0 1-.021-.117v-2.729a.299.299 0 1 1 .597 0v2.74a.303.303 0 0 1-.301.294h0Z"/><path stroke="#000" stroke-width=".177" stroke-linecap="round" stroke-linejoin="round" d="M175.879 70.08a.298.298 0 0 1-.295.298h-2.709a.295.295 0 0 1-.301-.299.3.3 0 0 1 .301-.304h2.709a.29.29 0 0 1 .21.09.289.289 0 0 1 .085.215Z"/><path fill="#fff" stroke="#000" stroke-linecap="round" stroke-linejoin="round" d="M141.044 66.66c0 21.012-16.834 38.036-37.587 38.036-20.754 0-37.587-17.024-37.587-38.036 0-21.013 16.833-38.036 37.587-38.036 20.753 0 37.587 17.023 37.587 38.036Z"/><path fill="none" stroke="#000" stroke-linecap="round" stroke-linejoin="round" d="m132.975 66.775-.034.724c-.454 7.824-3.906 15.16-9.622 20.45-5.717 5.288-13.247 8.112-20.99 7.87-7.742-.242-15.086-3.53-20.47-9.165-5.383-5.636-8.382-13.174-8.357-21.011M103.245 92.097v4.648M128.379 67.672h4.594M121.173 84.167l3.248 3.292M85.766 84.742l-3.249 3.287"/><path fill="none" stroke="#000" stroke-width=".75" stroke-linecap="round" stroke-linejoin="round" d="M59.966 23.596c.737 0 1.334-.605 1.334-1.35 0-.746-.597-1.35-1.334-1.35-.737 0-1.335.604-1.335 1.35 0 .745.598 1.35 1.335 1.35Z"/><path fill="none" stroke="#000" stroke-linecap="round" stroke-linejoin="round" d="M9.618 44.418h38.314M57.08 40.345H19.602a7.806 7.806 0 0 1 2.651-4.62 7.64 7.64 0 0 1 4.97-1.804h.295a11.144 11.144 0 0 1 4.607-4.478 10.974 10.974 0 0 1 6.284-1.162 11.02 11.02 0 0 1 5.875 2.54 11.227 11.227 0 0 1 3.513 5.398 5.522 5.522 0 0 1 2.842-1.403 5.49 5.49 0 0 1 3.139.396 5.566 5.566 0 0 1 2.415 2.067c.59.911.904 1.976.906 3.066h-.017ZM27.69 40.345h38.315"/><path stroke="#000" stroke-width=".177" stroke-linecap="round" stroke-linejoin="round" d="M57.08 98.922a.298.298 0 0 1-.277-.188.309.309 0 0 1-.023-.116v-2.741a.302.302 0 0 1 .186-.278.293.293 0 0 1 .115-.02.293.293 0 0 1 .273.184.303.303 0 0 1 .022.114v2.735a.301.301 0 0 1-.18.286.292.292 0 0 1-.115.024h0Z"/><path stroke="#000" stroke-width=".177" stroke-linecap="round" stroke-linejoin="round" d="M58.733 97.25a.301.301 0 0 1-.186.278.293.293 0 0 1-.115.021h-2.708a.293.293 0 0 1-.21-.087.3.3 0 0 1-.086-.212.3.3 0 0 1 .181-.281.292.292 0 0 1 .115-.023h2.731a.3.3 0 0 1 .198.097c.052.056.08.13.08.207h0Z"/><path fill="#c3c5ff" d="M73.502 65.207A24.182 24.182 0 0 1 77.93 51.24a23.733 23.733 0 0 1 11.637-8.746 23.446 23.446 0 0 1 14.495-.257 23.704 23.704 0 0 1 11.932 8.33l11.176-5.08a29.76 29.76 0 0 0-14.9-10.817 29.413 29.413 0 0 0-18.338.08 29.768 29.768 0 0 0-14.807 10.947 30.336 30.336 0 0 0-5.647 17.654"/><path fill="none" stroke="#c2c6ff" stroke-width=".089" stroke-linecap="round" stroke-linejoin="round" d="M73.502 65.207A24.182 24.182 0 0 1 77.93 51.24a23.733 23.733 0 0 1 11.637-8.746 23.446 23.446 0 0 1 14.495-.257 23.704 23.704 0 0 1 11.932 8.33l11.176-5.08a29.76 29.76 0 0 0-14.9-10.817 29.413 29.413 0 0 0-18.338.08 29.768 29.768 0 0 0-14.807 10.947 30.336 30.336 0 0 0-5.647 17.654"/><linearGradient id="a" x1="119.678" y1="49.225" x2="83.557" y2="49.225" gradientUnits="userSpaceOnUse"><stop offset="0" stop-color="#ad79ff"/><stop offset="1" stop-color="#c0bff9"/></linearGradient><path fill="url(#a)" d="M73.502 65.207A24.182 24.182 0 0 1 77.93 51.24a23.733 23.733 0 0 1 11.637-8.746 23.446 23.446 0 0 1 14.495-.257 23.703 23.703 0 0 1 11.932 8.33l11.176-5.08a29.762 29.762 0 0 0-14.9-10.817 29.415 29.415 0 0 0-18.338.08 29.769 29.769 0 0 0-14.807 10.947 30.336 30.336 0 0 0-5.647 17.654"/><path fill="#6f4ae7" stroke="#000" stroke-linecap="round" stroke-linejoin="round" d="M126.289 49.225c-7.895 10.22-17.318 22.106-19.34 23.736a6.22 6.22 0 0 1-4.654 1.502 6.264 6.264 0 0 1-2.394-.722c-.742-.399-1.4-.944-1.931-1.604a6.417 6.417 0 0 1-1.384-4.748c.094-.844.354-1.66.765-2.399.41-.739.964-1.387 1.627-1.906l.107-.087c2.022-1.63 15.584-8.272 27.193-13.75l.011-.022Z"/><path fill="none" stroke="#000" stroke-linecap="round" stroke-linejoin="round" d="M73.459 66.754h4.372"/></svg>
